output/footprints/LKBD_PCBFab.pretty/JLCPCB_2DBarcode_10x10mm.svg

<?xml version="1.0" standalone="no"?>
 <!DOCTYPE svg PUBLIC "-//W3C//DTD SVG 1.1//EN" 
 "http://www.w3.org/Graphics/SVG/1.1/DTD/svg11.dtd"> 
<svg
  xmlns:svg="http://www.w3.org/2000/svg"
  xmlns="http://www.w3.org/2000/svg"
  xmlns:xlink="http://www.w3.org/1999/xlink"
  version="1.1"
  width="22.6060mm" height="14.0970mm" viewBox="0.0000 0.0000 22.6060 14.0970">
<title>SVG Image created as JLCPCB_2DBarcode_10x10mm.svg date 2025/05/12 22:52:38 </title>
  <desc>Image generated by PCBNEW </desc>
<g style="fill:#000000; fill-opacity:1.0000;stroke:#000000; stroke-opacity:1.0000;
stroke-linecap:round; stroke-linejoin:round;"
 transform="translate(0 0) scale(1 1)">
<path style="fill:#F2EDA1; fill-opacity:1.0000; stroke:none;fill-rule:evenodd;"
d="M 6.3155,0.0500
16.3155,0.0500
16.3155,10.0500
6.3155,10.0500
Z" /> 
<path style="fill:none; 
stroke:#585D84; stroke-width:0.1000; stroke-opacity:1; 
stroke-linecap:round; stroke-linejoin:round;fill:none"
d="M 6.3155,0.0500
16.3155,0.0500
16.3155,10.0500
6.3155,10.0500
Z" /> 
</g>
<g style="fill:none; 
stroke:#AFAFAF; stroke-width:0.1500; stroke-opacity:1; 
stroke-linecap:round; stroke-linejoin:round;">
<text x="11.3155" y="13.7500"
textLength="22.6310" font-size="1.3333" lengthAdjust="spacingAndGlyphs"
text-anchor="middle" opacity="0" stroke-opacity="0">JLCPCB_2DBarcode_10x10mm</text>
<g class="stroked-text"><desc>JLCPCB_2DBarcode_10x10mm</desc>
<path d="M0.6488 12.7048
L0.6488 13.4191
" />
<path d="M0.6488 13.4191
L0.6012 13.5620
" />
<path d="M0.6012 13.5620
L0.5060 13.6572
" />
<path d="M0.5060 13.6572
L0.3631 13.7048
" />
<path d="M0.3631 13.7048
L0.2679 13.7048
" />
<path d="M1.6012 13.7048
L1.1250 13.7048
" />
<path d="M1.1250 13.7048
L1.1250 12.7048
" />
<path d="M2.5060 13.6096
L2.4583 13.6572
" />
<path d="M2.4583 13.6572
L2.3155 13.7048
" />
<path d="M2.3155 13.7048
L2.2202 13.7048
" />
<path d="M2.2202 13.7048
L2.0774 13.6572
" />
<path d="M2.0774 13.6572
L1.9821 13.5620
" />
<path d="M1.9821 13.5620
L1.9345 13.4667
" />
<path d="M1.9345 13.4667
L1.8869 13.2762
" />
<path d="M1.8869 13.2762
L1.8869 13.1334
" />
<path d="M1.8869 13.1334
L1.9345 12.9429
" />
<path d="M1.9345 12.9429
L1.9821 12.8477
" />
<path d="M1.9821 12.8477
L2.0774 12.7524
" />
<path d="M2.0774 12.7524
L2.2202 12.7048
" />
<path d="M2.2202 12.7048
L2.3155 12.7048
" />
<path d="M2.3155 12.7048
L2.4583 12.7524
" />
<path d="M2.4583 12.7524
L2.5060 12.8001
" />
<path d="M2.9345 13.7048
L2.9345 12.7048
" />
<path d="M2.9345 12.7048
L3.3155 12.7048
" />
<path d="M3.3155 12.7048
L3.4107 12.7524
" />
<path d="M3.4107 12.7524
L3.4583 12.8001
" />
<path d="M3.4583 12.8001
L3.5060 12.8953
" />
<path d="M3.5060 12.8953
L3.5060 13.0382
" />
<path d="M3.5060 13.0382
L3.4583 13.1334
" />
<path d="M3.4583 13.1334
L3.4107 13.1810
" />
<path d="M3.4107 13.1810
L3.3155 13.2286
" />
<path d="M3.3155 13.2286
L2.9345 13.2286
" />
<path d="M4.5060 13.6096
L4.4583 13.6572
" />
<path d="M4.4583 13.6572
L4.3155 13.7048
" />
<path d="M4.3155 13.7048
L4.2202 13.7048
" />
<path d="M4.2202 13.7048
L4.0774 13.6572
" />
<path d="M4.0774 13.6572
L3.9821 13.5620
" />
<path d="M3.9821 13.5620
L3.9345 13.4667
" />
<path d="M3.9345 13.4667
L3.8869 13.2762
" />
<path d="M3.8869 13.2762
L3.8869 13.1334
" />
<path d="M3.8869 13.1334
L3.9345 12.9429
" />
<path d="M3.9345 12.9429
L3.9821 12.8477
" />
<path d="M3.9821 12.8477
L4.0774 12.7524
" />
<path d="M4.0774 12.7524
L4.2202 12.7048
" />
<path d="M4.2202 12.7048
L4.3155 12.7048
" />
<path d="M4.3155 12.7048
L4.4583 12.7524
" />
<path d="M4.4583 12.7524
L4.5060 12.8001
" />
<path d="M5.2679 13.1810
L5.4107 13.2286
" />
<path d="M5.4107 13.2286
L5.4583 13.2762
" />
<path d="M5.4583 13.2762
L5.5060 13.3715
" />
<path d="M5.5060 13.3715
L5.5060 13.5143
" />
<path d="M5.5060 13.5143
L5.4583 13.6096
" />
<path d="M5.4583 13.6096
L5.4107 13.6572
" />
<path d="M5.4107 13.6572
L5.3155 13.7048
" />
<path d="M5.3155 13.7048
L4.9345 13.7048
" />
<path d="M4.9345 13.7048
L4.9345 12.7048
" />
<path d="M4.9345 12.7048
L5.2679 12.7048
" />
<path d="M5.2679 12.7048
L5.3631 12.7524
" />
<path d="M5.3631 12.7524
L5.4107 12.8001
" />
<path d="M5.4107 12.8001
L5.4583 12.8953
" />
<path d="M5.4583 12.8953
L5.4583 12.9905
" />
<path d="M5.4583 12.9905
L5.4107 13.0858
" />
<path d="M5.4107 13.0858
L5.3631 13.1334
" />
<path d="M5.3631 13.1334
L5.2679 13.1810
" />
<path d="M5.2679 13.1810
L4.9345 13.1810
" />
<path d="M5.6964 13.8001
L6.4583 13.8001
" />
<path d="M6.6488 12.8001
L6.6964 12.7524
" />
<path d="M6.6964 12.7524
L6.7917 12.7048
" />
<path d="M6.7917 12.7048
L7.0298 12.7048
" />
<path d="M7.0298 12.7048
L7.1250 12.7524
" />
<path d="M7.1250 12.7524
L7.1726 12.8001
" />
<path d="M7.1726 12.8001
L7.2202 12.8953
" />
<path d="M7.2202 12.8953
L7.2202 12.9905
" />
<path d="M7.2202 12.9905
L7.1726 13.1334
" />
<path d="M7.1726 13.1334
L6.6012 13.7048
" />
<path d="M6.6012 13.7048
L7.2202 13.7048
" />
<path d="M7.6488 13.7048
L7.6488 12.7048
" />
<path d="M7.6488 12.7048
L7.8869 12.7048
" />
<path d="M7.8869 12.7048
L8.0298 12.7524
" />
<path d="M8.0298 12.7524
L8.1250 12.8477
" />
<path d="M8.1250 12.8477
L8.1726 12.9429
" />
<path d="M8.1726 12.9429
L8.2202 13.1334
" />
<path d="M8.2202 13.1334
L8.2202 13.2762
" />
<path d="M8.2202 13.2762
L8.1726 13.4667
" />
<path d="M8.1726 13.4667
L8.1250 13.5620
" />
<path d="M8.1250 13.5620
L8.0298 13.6572
" />
<path d="M8.0298 13.6572
L7.8869 13.7048
" />
<path d="M7.8869 13.7048
L7.6488 13.7048
" />
<path d="M8.9821 13.1810
L9.1250 13.2286
" />
<path d="M9.1250 13.2286
L9.1726 13.2762
" />
<path d="M9.1726 13.2762
L9.2202 13.3715
" />
<path d="M9.2202 13.3715
L9.2202 13.5143
" />
<path d="M9.2202 13.5143
L9.1726 13.6096
" />
<path d="M9.1726 13.6096
L9.1250 13.6572
" />
<path d="M9.1250 13.6572
L9.0298 13.7048
" />
<path d="M9.0298 13.7048
L8.6488 13.7048
" />
<path d="M8.6488 13.7048
L8.6488 12.7048
" />
<path d="M8.6488 12.7048
L8.9821 12.7048
" />
<path d="M8.9821 12.7048
L9.0774 12.7524
" />
<path d="M9.0774 12.7524
L9.1250 12.8001
" />
<path d="M9.1250 12.8001
L9.1726 12.8953
" />
<path d="M9.1726 12.8953
L9.1726 12.9905
" />
<path d="M9.1726 12.9905
L9.1250 13.0858
" />
<path d="M9.1250 13.0858
L9.0774 13.1334
" />
<path d="M9.0774 13.1334
L8.9821 13.1810
" />
<path d="M8.9821 13.1810
L8.6488 13.1810
" />
<path d="M10.0774 13.7048
L10.0774 13.1810
" />
<path d="M10.0774 13.1810
L10.0298 13.0858
" />
<path d="M10.0298 13.0858
L9.9345 13.0382
" />
<path d="M9.9345 13.0382
L9.7440 13.0382
" />
<path d="M9.7440 13.0382
L9.6488 13.0858
" />
<path d="M10.0774 13.6572
L9.9821 13.7048
" />
<path d="M9.9821 13.7048
L9.7440 13.7048
" />
<path d="M9.7440 13.7048
L9.6488 13.6572
" />
<path d="M9.6488 13.6572
L9.6012 13.5620
" />
<path d="M9.6012 13.5620
L9.6012 13.4667
" />
<path d="M9.6012 13.4667
L9.6488 13.3715
" />
<path d="M9.6488 13.3715
L9.7440 13.3239
" />
<path d="M9.7440 13.3239
L9.9821 13.3239
" />
<path d="M9.9821 13.3239
L10.0774 13.2762
" />
<path d="M10.5536 13.7048
L10.5536 13.0382
" />
<path d="M10.5536 13.2286
L10.6012 13.1334
" />
<path d="M10.6012 13.1334
L10.6488 13.0858
" />
<path d="M10.6488 13.0858
L10.7440 13.0382
" />
<path d="M10.7440 13.0382
L10.8393 13.0382
" />
<path d="M11.6012 13.6572
L11.5060 13.7048
" />
<path d="M11.5060 13.7048
L11.3155 13.7048
" />
<path d="M11.3155 13.7048
L11.2202 13.6572
" />
<path d="M11.2202 13.6572
L11.1726 13.6096
" />
<path d="M11.1726 13.6096
L11.1250 13.5143
" />
<path d="M11.1250 13.5143
L11.1250 13.2286
" />
<path d="M11.1250 13.2286
L11.1726 13.1334
" />
<path d="M11.1726 13.1334
L11.2202 13.0858
" />
<path d="M11.2202 13.0858
L11.3155 13.0382
" />
<path d="M11.3155 13.0382
L11.5060 13.0382
" />
<path d="M11.5060 13.0382
L11.6012 13.0858
" />
<path d="M12.1726 13.7048
L12.0774 13.6572
" />
<path d="M12.0774 13.6572
L12.0298 13.6096
" />
<path d="M12.0298 13.6096
L11.9821 13.5143
" />
<path d="M11.9821 13.5143
L11.9821 13.2286
" />
<path d="M11.9821 13.2286
L12.0298 13.1334
" />
<path d="M12.0298 13.1334
L12.0774 13.0858
" />
<path d="M12.0774 13.0858
L12.1726 13.0382
" />
<path d="M12.1726 13.0382
L12.3155 13.0382
" />
<path d="M12.3155 13.0382
L12.4107 13.0858
" />
<path d="M12.4107 13.0858
L12.4583 13.1334
" />
<path d="M12.4583 13.1334
L12.5060 13.2286
" />
<path d="M12.5060 13.2286
L12.5060 13.5143
" />
<path d="M12.5060 13.5143
L12.4583 13.6096
" />
<path d="M12.4583 13.6096
L12.4107 13.6572
" />
<path d="M12.4107 13.6572
L12.3155 13.7048
" />
<path d="M12.3155 13.7048
L12.1726 13.7048
" />
<path d="M13.3631 13.7048
L13.3631 12.7048
" />
<path d="M13.3631 13.6572
L13.2679 13.7048
" />
<path d="M13.2679 13.7048
L13.0774 13.7048
" />
<path d="M13.0774 13.7048
L12.9821 13.6572
" />
<path d="M12.9821 13.6572
L12.9345 13.6096
" />
<path d="M12.9345 13.6096
L12.8869 13.5143
" />
<path d="M12.8869 13.5143
L12.8869 13.2286
" />
<path d="M12.8869 13.2286
L12.9345 13.1334
" />
<path d="M12.9345 13.1334
L12.9821 13.0858
" />
<path d="M12.9821 13.0858
L13.0774 13.0382
" />
<path d="M13.0774 13.0382
L13.2679 13.0382
" />
<path d="M13.2679 13.0382
L13.3631 13.0858
" />
<path d="M14.2202 13.6572
L14.1250 13.7048
" />
<path d="M14.1250 13.7048
L13.9345 13.7048
" />
<path d="M13.9345 13.7048
L13.8393 13.6572
" />
<path d="M13.8393 13.6572
L13.7917 13.5620
" />
<path d="M13.7917 13.5620
L13.7917 13.1810
" />
<path d="M13.7917 13.1810
L13.8393 13.0858
" />
<path d="M13.8393 13.0858
L13.9345 13.0382
" />
<path d="M13.9345 13.0382
L14.1250 13.0382
" />
<path d="M14.1250 13.0382
L14.2202 13.0858
" />
<path d="M14.2202 13.0858
L14.2679 13.1810
" />
<path d="M14.2679 13.1810
L14.2679 13.2762
" />
<path d="M14.2679 13.2762
L13.7917 13.3715
" />
<path d="M14.4583 13.8001
L15.2202 13.8001
" />
<path d="M15.9821 13.7048
L15.4107 13.7048
" />
<path d="M15.6964 13.7048
L15.6964 12.7048
" />
<path d="M15.6964 12.7048
L15.6012 12.8477
" />
<path d="M15.6012 12.8477
L15.5060 12.9429
" />
<path d="M15.5060 12.9429
L15.4107 12.9905
" />
<path d="M16.6012 12.7048
L16.6964 12.7048
" />
<path d="M16.6964 12.7048
L16.7917 12.7524
" />
<path d="M16.7917 12.7524
L16.8393 12.8001
" />
<path d="M16.8393 12.8001
L16.8869 12.8953
" />
<path d="M16.8869 12.8953
L16.9345 13.0858
" />
<path d="M16.9345 13.0858
L16.9345 13.3239
" />
<path d="M16.9345 13.3239
L16.8869 13.5143
" />
<path d="M16.8869 13.5143
L16.8393 13.6096
" />
<path d="M16.8393 13.6096
L16.7917 13.6572
" />
<path d="M16.7917 13.6572
L16.6964 13.7048
" />
<path d="M16.6964 13.7048
L16.6012 13.7048
" />
<path d="M16.6012 13.7048
L16.5060 13.6572
" />
<path d="M16.5060 13.6572
L16.4583 13.6096
" />
<path d="M16.4583 13.6096
L16.4107 13.5143
" />
<path d="M16.4107 13.5143
L16.3631 13.3239
" />
<path d="M16.3631 13.3239
L16.3631 13.0858
" />
<path d="M16.3631 13.0858
L16.4107 12.8953
" />
<path d="M16.4107 12.8953
L16.4583 12.8001
" />
<path d="M16.4583 12.8001
L16.5060 12.7524
" />
<path d="M16.5060 12.7524
L16.6012 12.7048
" />
<path d="M17.2679 13.7048
L17.7917 13.0382
" />
<path d="M17.2679 13.0382
L17.7917 13.7048
" />
<path d="M18.6964 13.7048
L18.1250 13.7048
" />
<path d="M18.4107 13.7048
L18.4107 12.7048
" />
<path d="M18.4107 12.7048
L18.3155 12.8477
" />
<path d="M18.3155 12.8477
L18.2202 12.9429
" />
<path d="M18.2202 12.9429
L18.1250 12.9905
" />
<path d="M19.3155 12.7048
L19.4107 12.7048
" />
<path d="M19.4107 12.7048
L19.5060 12.7524
" />
<path d="M19.5060 12.7524
L19.5536 12.8001
" />
<path d="M19.5536 12.8001
L19.6012 12.8953
" />
<path d="M19.6012 12.8953
L19.6488 13.0858
" />
<path d="M19.6488 13.0858
L19.6488 13.3239
" />
<path d="M19.6488 13.3239
L19.6012 13.5143
" />
<path d="M19.6012 13.5143
L19.5536 13.6096
" />
<path d="M19.5536 13.6096
L19.5060 13.6572
" />
<path d="M19.5060 13.6572
L19.4107 13.7048
" />
<path d="M19.4107 13.7048
L19.3155 13.7048
" />
<path d="M19.3155 13.7048
L19.2202 13.6572
" />
<path d="M19.2202 13.6572
L19.1726 13.6096
" />
<path d="M19.1726 13.6096
L19.1250 13.5143
" />
<path d="M19.1250 13.5143
L19.0774 13.3239
" />
<path d="M19.0774 13.3239
L19.0774 13.0858
" />
<path d="M19.0774 13.0858
L19.1250 12.8953
" />
<path d="M19.1250 12.8953
L19.1726 12.8001
" />
<path d="M19.1726 12.8001
L19.2202 12.7524
" />
<path d="M19.2202 12.7524
L19.3155 12.7048
" />
<path d="M20.0774 13.7048
L20.0774 13.0382
" />
<path d="M20.0774 13.1334
L20.1250 13.0858
" />
<path d="M20.1250 13.0858
L20.2202 13.0382
" />
<path d="M20.2202 13.0382
L20.3631 13.0382
" />
<path d="M20.3631 13.0382
L20.4583 13.0858
" />
<path d="M20.4583 13.0858
L20.5060 13.1810
" />
<path d="M20.5060 13.1810
L20.5060 13.7048
" />
<path d="M20.5060 13.1810
L20.5536 13.0858
" />
<path d="M20.5536 13.0858
L20.6488 13.0382
" />
<path d="M20.6488 13.0382
L20.7917 13.0382
" />
<path d="M20.7917 13.0382
L20.8869 13.0858
" />
<path d="M20.8869 13.0858
L20.9345 13.1810
" />
<path d="M20.9345 13.1810
L20.9345 13.7048
" />
<path d="M21.4107 13.7048
L21.4107 13.0382
" />
<path d="M21.4107 13.1334
L21.4583 13.0858
" />
<path d="M21.4583 13.0858
L21.5536 13.0382
" />
<path d="M21.5536 13.0382
L21.6964 13.0382
" />
<path d="M21.6964 13.0382
L21.7917 13.0858
" />
<path d="M21.7917 13.0858
L21.8393 13.1810
" />
<path d="M21.8393 13.1810
L21.8393 13.7048
" />
<path d="M21.8393 13.1810
L21.8869 13.0858
" />
<path d="M21.8869 13.0858
L21.9821 13.0382
" />
<path d="M21.9821 13.0382
L22.1250 13.0382
" />
<path d="M22.1250 13.0382
L22.2202 13.0858
" />
<path d="M22.2202 13.0858
L22.2679 13.1810
" />
<path d="M22.2679 13.1810
L22.2679 13.7048
" />
</g></g>
<g style="fill:none; 
stroke:#AFAFAF; stroke-width:0.2500; stroke-opacity:1; 
stroke-linecap:round; stroke-linejoin:round;">
<text x="11.3155" y="6.0500"
textLength="2.0643" font-size="2.6667" lengthAdjust="spacingAndGlyphs"
text-anchor="middle" opacity="0" stroke-opacity="0">F</text>
<g class="stroked-text"><desc>F</desc>
<path d="M11.6012 4.9146
L10.9345 4.9146
" />
<path d="M10.9345 5.9622
L10.9345 3.9622
" />
<path d="M10.9345 3.9622
L11.8869 3.9622
" />
</g></g>
<g style="fill:none; 
stroke:#AFAFAF; stroke-width:0.1500; stroke-opacity:1; 
stroke-linecap:round; stroke-linejoin:round;">
<text x="11.3155" y="11.5500"
textLength="1.1071" font-size="1.3333" lengthAdjust="spacingAndGlyphs"
text-anchor="middle" opacity="0" stroke-opacity="0">F</text>
<g class="stroked-text"><desc>F</desc>
<path d="M11.4583 10.9810
L11.1250 10.9810
" />
<path d="M11.1250 11.5048
L11.1250 10.5048
" />
<path d="M11.1250 10.5048
L11.6012 10.5048
" />
</g><path style="fill:none; 
stroke:#AFAFAF; stroke-width:0.1000; stroke-opacity:1; 
stroke-linecap:round; stroke-linejoin:round;fill:none"
d="M 6.3155,10.0500
16.3155,10.0500
16.3155,12.0500
6.3155,12.0500
Z" /> 
</g> 
</svg>

<svg xmlns="http://www.w3.org/2000/svg" width="85.44" height="53.28" viewBox="0 0 22.606 14.097">
    <g style="fill:#000;fill-opacity:1;stroke:#000;stroke-opacity:1;stroke-linecap:round;stroke-linejoin:round">
        <path stroke="none" d="M6.316.05h10v10h-10Z" style="fill:#f2eda1;fill-opacity:1;stroke:none;fill-rule:evenodd"/>
        <path d="M6.316.05h10v10h-10Z" style="stroke:#585d84;stroke-width:.1;stroke-opacity:1;stroke-linecap:round;stroke-linejoin:round;fill:none"/>
    </g>
    <g class="stroked-text" style="fill:none;stroke:#afafaf;stroke-width:.15;stroke-opacity:1;stroke-linecap:round;stroke-linejoin:round">
        <path d="M.649 12.705v.714M.649 13.42l-.048.142M.601 13.562l-.095.095M.506 13.657l-.143.048M.363 13.705H.268M1.601 13.705h-.476M1.125 13.705v-1M2.506 13.61l-.048.047M2.458 13.657l-.143.048M2.316 13.705H2.22M2.22 13.705l-.143-.048M2.077 13.657l-.095-.095M1.982 13.562l-.047-.095M1.935 13.467l-.048-.19M1.887 13.276v-.143M1.887 13.133l.048-.19M1.935 12.943l.047-.095M1.982 12.848l.095-.096M2.077 12.752l.143-.047M2.22 12.705h.095M2.316 12.705l.142.047M2.458 12.752l.048.048M2.935 13.705v-1M2.935 12.705h.38M3.316 12.705l.095.047M3.41 12.752l.048.048M3.458 12.8l.048.095M3.506 12.895v.143M3.506 13.038l-.048.095M3.458 13.133l-.047.048M3.41 13.181l-.095.048M3.316 13.229h-.381M4.506 13.61l-.048.047M4.458 13.657l-.143.048M4.316 13.705H4.22M4.22 13.705l-.143-.048M4.077 13.657l-.095-.095M3.982 13.562l-.048-.095M3.935 13.467l-.048-.19M3.887 13.276v-.143M3.887 13.133l.047-.19M3.935 12.943l.047-.095M3.982 12.848l.095-.096M4.077 12.752l.143-.047M4.22 12.705h.096M4.316 12.705l.142.047M4.458 12.752l.048.048M5.268 13.181l.143.048M5.41 13.229l.048.047M5.458 13.276l.048.095M5.506 13.372v.142M5.506 13.514l-.048.096M5.458 13.61l-.047.047M5.41 13.657l-.095.048M5.316 13.705h-.381M4.935 13.705v-1M4.935 12.705h.333M5.268 12.705l.095.047M5.363 12.752l.048.048M5.41 12.8l.048.095M5.458 12.895v.096M5.458 12.99l-.047.096M5.41 13.086l-.047.047M5.363 13.133l-.095.048M5.268 13.181h-.333M5.696 13.8h.762M6.649 12.8l.047-.048M6.696 12.752l.096-.047M6.792 12.705h.238M7.03 12.705l.095.047M7.125 12.752l.048.048M7.173 12.8l.047.095M7.22 12.895v.096M7.22 12.99l-.047.143M7.173 13.133l-.572.572M6.601 13.705h.62M7.649 13.705v-1M7.649 12.705h.238M7.887 12.705l.143.047M8.03 12.752l.095.096M8.125 12.848l.048.095M8.173 12.943l.047.19M8.22 13.133v.143M8.22 13.276l-.047.19M8.173 13.467l-.048.095M8.125 13.562l-.095.095M8.03 13.657l-.143.048M7.887 13.705h-.238M8.982 13.181l.143.048M9.125 13.229l.048.047M9.173 13.276l.047.095M9.22 13.372v.142M9.22 13.514l-.047.096M9.173 13.61l-.048.047M9.125 13.657l-.095.048M9.03 13.705h-.381M8.649 13.705v-1M8.649 12.705h.333M8.982 12.705l.095.047M9.077 12.752l.048.048M9.125 12.8l.048.095M9.173 12.895v.096M9.173 12.99l-.048.096M9.125 13.086l-.048.047M9.077 13.133l-.095.048M8.982 13.181H8.65M10.077 13.705v-.524M10.077 13.181l-.047-.095M10.03 13.086l-.095-.048M9.935 13.038h-.191M9.744 13.038l-.095.048M10.077 13.657l-.095.048M9.982 13.705h-.238M9.744 13.705l-.095-.048M9.649 13.657l-.048-.095M9.601 13.562v-.095M9.601 13.467l.048-.096M9.649 13.372l.095-.048M9.744 13.324h.238M9.982 13.324l.095-.048M10.554 13.705v-.667M10.554 13.229l.047-.096M10.601 13.133l.048-.047M10.649 13.086l.095-.048M10.744 13.038h.095M11.601 13.657l-.095.048M11.506 13.705h-.19M11.316 13.705l-.096-.048M11.22 13.657l-.047-.047M11.173 13.61l-.048-.096M11.125 13.514v-.285M11.125 13.229l.048-.096M11.173 13.133l.047-.047M11.22 13.086l.095-.048M11.316 13.038h.19M11.506 13.038l.095.048M12.173 13.705l-.096-.048M12.077 13.657l-.047-.047M12.03 13.61l-.048-.096M11.982 13.514v-.285M11.982 13.229l.048-.096M12.03 13.133l.047-.047M12.077 13.086l.096-.048M12.173 13.038h.143M12.316 13.038l.095.048M12.41 13.086l.048.047M12.458 13.133l.048.096M12.506 13.229v.285M12.506 13.514l-.048.096M12.458 13.61l-.047.047M12.41 13.657l-.095.048M12.316 13.705h-.143M13.363 13.705v-1M13.363 13.657l-.095.048M13.268 13.705h-.19M13.077 13.705l-.095-.048M12.982 13.657l-.047-.047M12.935 13.61l-.048-.096M12.887 13.514v-.285M12.887 13.229l.047-.096M12.935 13.133l.047-.047M12.982 13.086l.095-.048M13.077 13.038h.19M13.268 13.038l.095.048M14.22 13.657l-.095.048M14.125 13.705h-.19M13.935 13.705l-.096-.048M13.84 13.657l-.048-.095M13.792 13.562v-.381M13.792 13.181l.047-.095M13.84 13.086l.095-.048M13.935 13.038h.19M14.125 13.038l.095.048M14.22 13.086l.048.095M14.268 13.181v.095M14.268 13.276l-.476.095M14.458 13.8h.762M15.982 13.705h-.571M15.696 13.705v-1M15.696 12.705l-.095.143M15.601 12.848l-.095.095M15.506 12.943l-.095.048M16.601 12.705h.095M16.696 12.705l.096.047M16.792 12.752l.047.048M16.84 12.8l.047.095M16.887 12.895l.047.19M16.935 13.086v.238M16.935 13.324l-.048.19M16.887 13.514l-.048.096M16.84 13.61l-.048.047M16.792 13.657l-.096.048M16.696 13.705h-.095M16.601 13.705l-.095-.048M16.506 13.657l-.048-.047M16.458 13.61l-.047-.096M16.41 13.514l-.047-.19M16.363 13.324v-.238M16.363 13.086l.048-.19M16.41 12.895l.048-.095M16.458 12.8l.048-.048M16.506 12.752l.095-.047M17.268 13.705l.524-.667M17.268 13.038l.524.667M18.696 13.705h-.571M18.41 13.705v-1M18.41 12.705l-.095.143M18.316 12.848l-.096.095M18.22 12.943l-.095.048M19.316 12.705h.095M19.41 12.705l.096.047M19.506 12.752l.048.048M19.554 12.8l.047.095M19.601 12.895l.048.19M19.649 13.086v.238M19.649 13.324l-.048.19M19.601 13.514l-.047.096M19.554 13.61l-.048.047M19.506 13.657l-.095.048M19.41 13.705h-.095M19.316 13.705l-.096-.048M19.22 13.657l-.047-.047M19.173 13.61l-.048-.096M19.125 13.514l-.048-.19M19.077 13.324v-.238M19.077 13.086l.048-.19M19.125 12.895l.048-.095M19.173 12.8l.047-.048M19.22 12.752l.096-.047M20.077 13.705v-.667M20.077 13.133l.048-.047M20.125 13.086l.095-.048M20.22 13.038h.143M20.363 13.038l.095.048M20.458 13.086l.048.095M20.506 13.181v.524M20.506 13.181l.048-.095M20.554 13.086l.095-.048M20.649 13.038h.143M20.792 13.038l.095.048M20.887 13.086l.047.095M20.935 13.181v.524M21.41 13.705v-.667M21.41 13.133l.048-.047M21.458 13.086l.096-.048M21.554 13.038h.142M21.696 13.038l.096.048M21.792 13.086l.047.095M21.84 13.181v.524M21.84 13.181l.047-.095M21.887 13.086l.095-.048M21.982 13.038h.143M22.125 13.038l.095.048M22.22 13.086l.048.095M22.268 13.181v.524"/>
    </g>
    <g class="stroked-text" style="fill:none;stroke:#afafaf;stroke-width:.25;stroke-opacity:1;stroke-linecap:round;stroke-linejoin:round">
        <path d="M11.601 4.915h-.667M10.935 5.962v-2M10.935 3.962h.952"/>
    </g>
    <g style="fill:none;stroke:#afafaf;stroke-width:.15;stroke-opacity:1;stroke-linecap:round;stroke-linejoin:round">
        <g class="stroked-text">
            <path d="M11.458 10.981h-.333M11.125 11.505v-1M11.125 10.505h.476"/>
        </g>
        <path d="M6.316 10.05h10v2h-10Z" style="stroke:#afafaf;stroke-width:.1;stroke-opacity:1;stroke-linecap:round;stroke-linejoin:round;fill:none"/>
    </g>
</svg>
